src/images/icons/arrow-more-white.svg

<svg fill="none" height="13" viewBox="0 0 36 13" width="36" xmlns="http://www.w3.org/2000/svg"><g fill="#fff"><path d="m0 7.96408v-2.91366h32.3741v2.91366z"/><path d="m35.9352 7.88633-10.4633 4.90787.1166-3.28916 6.3323-2.77123v-.14244l-6.1251-3.21151.1036-3.37986 10.1007 5.81439z"/></g></svg>

<svg width="36" height="13" viewBox="0 0 36 13" fill="none" xmlns="http://www.w3.org/2000/svg">
<path d="M0 7.96408V5.05042H32.3741V7.96408H0Z" fill="white"/>
<path d="M35.9352 7.88633L25.4719 12.7942L25.5885 9.50504L31.9208 6.73381V6.59137L25.7957 3.37986L25.8993 0L36 5.81439L35.9352 7.88633Z" fill="white"/>
</svg>
